static/images/placeholder.svg

<svg viewBox="0 0 59.76 38.91" xmlns="http://www.w3.org/2000/svg"><path d="m0 10.22h18.47v18.47h-18.47z" fill="#f2e94e" opacity=".69"/><path d="m9.19 32.42a6.48 6.48 0 0 0 6.47-6.48 6.26 6.26 0 0 0 -.61-2.69l4.46-3.88a6.42 6.42 0 0 0 7.28 0l4.49 3.89a6.4 6.4 0 0 0 -.6 2.69 6.47 6.47 0 0 0 12.94 0 6.38 6.38 0 0 0 -1.3-3.85l8.68-9.61a6.09 6.09 0 0 0 2.31.45 6.47 6.47 0 1 0 -6.47-6.47 6.37 6.37 0 0 0 1.31 3.85l-8.65 9.61a6.37 6.37 0 0 0 -5.88.62l-4.54-3.92a6.47 6.47 0 1 0 -12.42-2.63 6.53 6.53 0 0 0 .56 2.65l-4.49 3.9a6.47 6.47 0 1 0 -3.54 11.87zm44.1-28.86a2.91 2.91 0 1 1 -2.91 2.91 2.91 2.91 0 0 1 2.91-2.91zm-13.24 22.38a2.91 2.91 0 0 1 -5.81 0 2.87 2.87 0 0 1 .69-1.9.08.08 0 0 1 0 0 2.89 2.89 0 0 1 4.08-.29 2.85 2.85 0 0 1 1 2.2zm-16.91-14.82a2.91 2.91 0 1 1 -2.91 2.88 2.9 2.9 0 0 1 2.91-2.88zm-13.95 11.88a2.91 2.91 0 1 1 -2.91 3 2.91 2.91 0 0 1 2.91-3z"/><path d="m58 35.34h-53.5a1.79 1.79 0 0 0 0 3.57h53.5a1.79 1.79 0 0 0 0-3.57z"/></svg>

<svg xmlns="http://www.w3.org/2000/svg" viewBox="0 0 59.76 38.91"><defs><style>.cls-1{fill:#f2e94e;opacity:0.69;}</style></defs><title>Asset 9</title><g id="Layer_2" data-name="Layer 2"><g id="Layer_1-2" data-name="Layer 1"><rect class="cls-1" y="10.22" width="18.47" height="18.47"/><path d="M9.19,32.42a6.48,6.48,0,0,0,6.47-6.48,6.26,6.26,0,0,0-.61-2.69l4.46-3.88a6.42,6.42,0,0,0,7.28,0l4.49,3.89a6.4,6.4,0,0,0-.6,2.69,6.47,6.47,0,0,0,12.94,0,6.38,6.38,0,0,0-1.3-3.85L51,12.49a6.09,6.09,0,0,0,2.31.45,6.47,6.47,0,1,0-6.47-6.47,6.37,6.37,0,0,0,1.31,3.85l-8.65,9.61a6.37,6.37,0,0,0-5.88.62l-4.54-3.92A6.47,6.47,0,1,0,16.66,14a6.53,6.53,0,0,0,.56,2.65l-4.49,3.9A6.47,6.47,0,1,0,9.19,32.42ZM53.29,3.56a2.91,2.91,0,1,1-2.91,2.91A2.91,2.91,0,0,1,53.29,3.56ZM40.05,25.94a2.91,2.91,0,0,1-5.81,0,2.87,2.87,0,0,1,.69-1.9l0,0a.08.08,0,0,1,0,0,2.89,2.89,0,0,1,4.08-.29,2.85,2.85,0,0,1,1,2.2ZM23.14,11.12A2.91,2.91,0,1,1,20.23,14h0A2.9,2.9,0,0,1,23.14,11.12ZM9.19,23A2.91,2.91,0,1,1,6.28,26h0A2.91,2.91,0,0,1,9.19,23Z"/><path d="M58,35.34H4.5a1.79,1.79,0,0,0,0,3.57H58a1.79,1.79,0,0,0,0-3.57Z"/></g></g></svg>
